!!!SOCIAL_FUNCTION:	songs connected with rare medicines
!!!PDT:	1909
!!!OTL: No_85_Song_of_the_Crab_Medicine-bag.krn
!!!REG: Great_Lakes
!!!LANG: Non-Tone
!!!LING_GROUP: Algonquin
**kern	**kern
*staff2	*staff1
*clefF4	*clefF4
*k[]	*k[]
*M2/4	*M2/4
4r	8B\L
.	8B\J
=1	=1
8GG/L	4.B\
8GG/J	.
8GG/L	.
8GG/J	8B\
=2	=2
8GG/L	8B\L
8GG/J	8A\J
8GG/L	12A\L
.	12A\
8GG/J	.
.	12A\J
=3||	=3||
*M3/4	*M3/4
2.r	4.B\
.	8A\
.	8A\L
.	8A\J
=4	=4
2.r	4.G\
.	8G\
.	4G\
=5||	=5||
*M2/4	*M2/4
2r	4.G\
.	8G\
=6	=6
2r	4G\
.	8G\L
.	8G\J
=7!|:	=7!|:
2r	4.G\
.	8G\
=8||	=8||
*M3/4	*M3/4
2.r	8G\L
.	8G\J
.	12F#\L
.	12G\
.	12G\J
.	8G\L
.	8G\J
=9	=9
2.r	4.F\
.	8F\
.	4F\
=10||	=10||
*M2/4	*M2/4
2r	4.F\
.	8F\
=11	=11
2r	4F\
.	8F\L
.	8F\J
=12	=12
2r	4.F\
.	8F\
=13	=13
2r	8F\L
.	8D\J
.	12D\L
.	12D\
.	12D\J
=14	=14
2r	4.D\
.	8D\
=15	=15
2r	4D\
.	8D\L
.	8D\J
=16	=16
2r	4.C/
.	8C/
=17	=17
2r	4C/
.	8C/L
.	8C/J
=18	=18
2r	4.C/
.	8C/
=19	=19
2r	8C/L
.	8C/J
.	12AA/L
.	12AA/
.	12AA/J
=20	=20
2r	4.AA/
.	8AA/
=21	=21
2r	4AA/
.	8AA/L
.	8AA/J
=22	=22
2r	12c\L
.	12c\
.	12c\J
.	8c\L
.	8A\J
=23	=23
2r	4.G\
.	8G\
=24	=24
2r	4G\
.	8A\L
.	8A\J
=25	=25
2r	4.G\
.	8G\
=26	=26
2r	4G\
.	8G\L
.	8F\J
=27	=27
2r	4.F\
.	8D\
=28	=28
2r	4D\
.	8G\L
.	8G\J
==:|!	==:|!
*-	*-
